icon-themes/breeze_svg/cmd/sc_statisticsmenu.svg

<svg viewBox="0 0 16 16" xmlns="http://www.w3.org/2000/svg"><path d="m10 3 1.099609 1.0996094-2.3476559 1.9550781-2.9101562.9707031.3164062.9492188 3.0898438-1.03125 2.5605471-2.1347656 1.191406 1.1914062v-3z" fill="#1d99f3"/><path d="m4 4v8h-1v1h1v1h1v-1h8v-1h-1v-5h-2v5h-2v-2h-2v2h-1v-8z" fill="#4d4d4d"/></svg>

<svg viewBox="0 0 16 16" xmlns="http://www.w3.org/2000/svg">
  <path
     style="fill:#1d99f3"
     d="M 10 3 L 11.099609 4.0996094 L 8.7519531 6.0546875 L 5.8417969 7.0253906 L 6.1582031 7.9746094 L 9.2480469 6.9433594 L 11.808594 4.8085938 L 13 6 L 13 3 L 10 3 z "
     />
  <path
     style="fill:#4d4d4d"
     d="m 4,4 v 8 H 3 v 1 h 1 v 1 h 1 v -1 h 8 V 12 H 12 V 7 h -2 v 5 H 8 V 10 H 6 v 2 H 5 V 4 Z"
     />
</svg>
